!!!!SEGMENT: pl-gd--ee-1638--003-009_marenzio-luca--madrigali-a-quatro-voci-e-per-virtu-de-l-amorosa-speme.krn
!!!cenid: 15xx:983
!!!COM: Marenzio, Luca
!!!COM-rismID: pe30003955
!!!CDT: ~1553-1599/08/22
!!!CNT: Italian
!!!GTL: Madrigali a quatro voci
!!!OTL: E per virtu de l’amorosa speme
!!!OMV: 009
!!!PDT: 1587
!!!AGN:
!!!SMS-siglum: PL-GD
!!!SMS-shelfmark: Ee 1638
!!!SMS-shelfwork: 003-009 G
!!!SMS-variant:
!!!SMS-altvar:
!!!NIFC-rismSourceID: 1001202747
!!!NIFC-rismChildID: 990039322
!!!NIFC-islandoraID: pl-gd:57883
!!!URL-pdf-islandora: https://repozytorium.nifc.pl/islandora/object/pl-gd%3A57883/datastream/PDF/view
!!!URL-scan: https://polish.musicsources.pl/pl/lokalizacje/galeria/klocki-introligatorskie/655 @EN{Scan on Polish Music Sources Website} @PL{Skany w portalu Dziedzictwo Muzyki Polskiej w otwartym dostępie}
!!!ONB-nifc: UWAGA: zbiór na stronach: Canto: s. 637-653, Alto: s. do 486-501, Tenore: s. do 334-349, Bassus: s. do 182-197. Uwaga: utwory podzielone wg tytułów w spisach treści dostępnych na końcu każdej księgi głosowej.
!!!AIN: 1 alto 1 bass 1 soprn 1 tenor
!!!key: C
**kern	**text	**kern	**text	**kern	**text	**kern	**text
*part4	*part4	*part3	*part3	*part2	*part2	*part1	*part1
*staff4	*staff4	*staff3	*staff3	*staff2	*staff2	*staff1	*staff1
*I"BASSO	*	*I"TENORE	*	*I"ALTO	*	*I"CANTO	*
*I'B	*	*I'T	*	*I'A	*	*I'S	*
*ICvox	*	*ICvox	*	*ICvox	*	*ICvox	*
*Ibass	*	*Itenor	*	*Ialto	*	*Isoprn	*
*clefC4	*	*clefC3	*	*clefC2	*	*clefG2	*
*k[]	*	*k[]	*	*k[]	*	*k[]	*
*C:	*	*C:	*	*C:	*	*C:	*
*M4/4	*	*M4/4	*	*M4/4	*	*M4/4	*
*met(C)	*	*met(C)	*	*met(C)	*	*met(C)	*
=1-	=1-	=1-	=1-	=1-	=1-	=1-	=1-
*xywh-pl-gd--ee1638-8o--0186:4677,604,3309,791	*	*xywh-pl-gd--ee1638-8o--0338:4614,1618,3337,773	*	*xywh-pl-gd--ee1638-8o--0490:4538,1622,3381,753	*	*xywh-pl-gd--ee1638-8o--0642:4666,1542,3382,894	*
2r	.	1g	E	0r	.	0r	.
!LO:TX:a:t=Seconda parte.	!	!	!	!	!	!	!
2G/	E	.	.	.	.	.	.
=2-	=2-	=2-	=2-	=2-	=2-	=2-	=2-
2c\	Per	2e\	Per	.	.	.	.
2B\	vir-	2d\	vir-	.	.	.	.
=3-	=3-	=3-	=3-	=3-	=3-	=3-	=3-
!	!	!	!	!LO:TX:a:t=Seconda parte.	!	!	!
1c	-tù	1e	-tù	1g	E	2r	.
.	.	.	.	.	.	2g/	E
=4-	=4-	=4-	=4-	=4-	=4-	=4-	=4-
2r	.	2r	.	2e/	Per	2cc\	Per
2G/	de	2g\	de	2d/	vir-	2b/	vir-
=5-	=5-	=5-	=5-	=5-	=5-	=5-	=5-
4c\	l'a-	4e\	l'a-	1c	-tù	2cc\	-tù
4d\	-mo-	4f\	-mo-	.	.	.	.
4e\	-ro-	4g\	-ro-	.	.	2r	.
4e\	ſa	4g\	ſa	.	.	.	.
=6-	=6-	=6-	=6-	=6-	=6-	=6-	=6-
2d\	ſpe-	2f\	ſpe-	2r	.	2r	.
*	*	*	*	*	*ij	*	*
2c\	-me	2e\	-me	2g\	E	2gg\	E
=7-	=7-	=7-	=7-	=7-	=7-	=7-	=7-
2r	.	2r	.	2cc\	par	2ee\	par
2G/	E	2g\	E	2b\	vir-	2dd\	vir-
=8-	=8-	=8-	=8-	=8-	=8-	=8-	=8-
2c\	par	2e\	par	2cc\	-tù	2ee\	-tù
2B\	vir-	2d\	vir-	4r	.	2r	.
*	*	*	*	*	*Xij	*	*
.	.	.	.	4g\	de	.	.
=9-	=9-	=9-	=9-	=9-	=9-	=9-	=9-
2c\	-tù	2g\	-tù	4e/	l'a-	2r	.
.	.	.	.	4f\	-mo-	.	.
!LO:SIC:v:t=custos F	!	!LO:SIC:v:t=custos d	!	!	!	!	!
2C/	de	2e\	de	4g\	-ro-	2cc\	de
.	.	.	.	4g\	ſa	.	.
!LO:LB:g=original	!	!LO:LB:g=original	!	!	!	!	!
=10-	=10-	=10-	=10-	=10-	=10-	=10-	=10-
*xywh-pl-gd--ee1638-8o--0186:4625,1291,3434,624	*	*xywh-pl-gd--ee1638-8o--0338:4624,2351,3388,620	*	*	*	*	*
4F/	l'a-	4d\	l'a-	2f\	ſpe-	4a/	l'a-
4G/	-mo-	4d\	-mo-	.	.	4b/	-mo-
4A/	-ro-	4.c/	-ro-	4.e/	-me	4cc\	-ro-
!	!	!	!	!	!	!LO:SIC:v:t=custos b	!
4A/	ſa	.	.	.	.	4cc\	ſa
.	.	8d\	ſa	8f\	.	.	.
!	!	!	!	!	!	!LO:LB:g=original	!
=11-	=11-	=11-	=11-	=11-	=11-	=11-	=11-
!	!	!	!	!LO:SIC:v:t=custos cc	!	!	!
*	*	*	*	*	*	*xywh-pl-gd--ee1638-8o--0642:4635,2262,3300,678	*
1G	ſpe-	4e\	ſpe	0g	.	4b/	ſpe
.	.	8d\	.	.	.	2cc\	.
.	.	8c\	.	.	.	.	.
.	.	2d\	.	.	.	.	.
.	.	.	.	.	.	4b/	.
!	!	!	!	!LO:LB:g=original	!	!	!
=12-	=12-	=12-	=12-	=12-	=12-	=12-	=12-
!	!	!	!	!	!	!	!
2C/	-me	2c/	me	.	.	1cc	-me
2c\	Che	2e\	Che	.	.	.	.
=13-	=13-	=13-	=13-	=13-	=13-	=13-	=13-
*	*	*	*	*xywh-pl-gd--ee1638-8o--0490:4565,2277,3425,672	*	*	*
2B\	ti	2d\	ti	1r	.	1r	.
2A/	ſoſ-	2f\	ſoſ-	.	.	.	.
=14-	=14-	=14-	=14-	=14-	=14-	=14-	=14-
2c\	-ten-	2e\	-ten-	2r	.	2r	.
2c\	ne	2e\	ne	2cc\	Che	2ee\	Che
=15-	=15-	=15-	=15-	=15-	=15-	=15-	=15-
0r	.	1r	.	2b\	ti	2dd\	ti
.	.	.	.	2a\	ſoſ-	2ff\	ſoſ-
=16-	=16-	=16-	=16-	=16-	=16-	=16-	=16-
.	.	2r	.	4cc\	-ten-	4ee\	-ten-
.	.	.	.	8b\	.	8dd\	.
.	.	.	.	8a\	.	8cc\	.
.	.	2e\	Che	4g\	.	4b/	.
.	.	.	.	4a\	.	4cc\	.
=17-	=17-	=17-	=17-	=17-	=17-	=17-	=17-
1r	.	2d\	ti	4b\	.	4dd\	.
.	.	.	.	8a\	.	8cc\	.
.	.	.	.	8g\	.	8b\	.
.	.	2f\	ſoſ-	2a\	.	4a/	.
.	.	.	.	.	.	4b/	.
=18-	=18-	=18-	=18-	=18-	=18-	=18-	=18-
2r	.	4e\	-ten-	2g\	ne	4cc\	.
.	.	8d\	.	.	.	4b/	.
.	.	8c\	.	.	.	.	.
2E/	Che	4B/	.	4r	.	2.b/	.
!	!	!LO:SIC:v:t=custos d	!	!	!	!	!
.	.	4c/	.	4e/	Che	.	.
*	*	*xywh-pl-gd--ee1638-8o--0338:4451,2799,3592,681	*	*	*	*	*
!	!	!LO:LB:g=original	!	!	!	!	!
=19-	=19-	=19-	=19-	=19-	=19-	=19-	=19-
2D/	ti	4d\	.	2f\	ti	.	.
.	.	8c/	.	.	.	4a/	.
.	.	8B/	.	.	.	.	.
2F/	ſoſ-	4A/	.	2d/	ſoſ-	1a/	.
.	.	4B/	.	.	.	.	.
=20-	=20-	=20-	=20-	=20-	=20-	=20-	=20-
2E/	-ten-	4c/	.	1e	-ten-	.	.
.	.	8B/	.	.	.	.	.
.	.	8A/	.	.	.	.	.
!	!	!	!	!	!	!LO:SIC:v:t=custos ee	!
2E/	ne	2B/	.	.	.	2g#X/	-ne
!	!	!	!	!	!	!LO:LB:g=original	!
=21-	=21-	=21-	=21-	=21-	=21-	=21-	=21-
*	*	*	*	*	*	*xywh-pl-gd--ee1638-8o--0642:4697,2837,3238,647	*
1.c	nel-	1A	ne	2e/	ne	2r	.
.	.	.	.	2a\	-nel-	1ee\	nel-
=22-	=22-	=22-	=22-	=22-	=22-	=22-	=22-
.	.	2c/	-nel-	2g\	la	.	.
2B\	-la	2d\	la	2g\	vita	2dd\	-la
=23-	=23-	=23-	=23-	=23-	=23-	=23-	=23-
2A/	vita	1.e	vita	2c/	a-	2cc\	vita
2G/	a-	.	.	1g/	-cer-	2b/	a-
=24-	=24-	=24-	=24-	=24-	=24-	=24-	=24-
0A	-cer-	.	.	.	.	0cc	-cer-
.	.	2d\	a-	4f\	.	.	.
!	!	!	!	!LO:SIC:v:t=custos f	!	!	!
.	.	.	.	4e/	.	.	.
*	*	*	*	*xywh-pl-gd--ee1638-8o--0490:4565,2860,3461,645	*	*	*
!	!	!	!	!LO:LB:g=original	!	!	!
=25-	=25-	=25-	=25-	=25-	=25-	=25-	=25-
.	.	1c	-cer-	1f#X	.	.	.
=26-	=26-	=26-	=26-	=26-	=26-	=26-	=26-
!LO:SIC:v:t=custos d	!	!	!	!	!	!	!
2G/	-ba	4d\	-ba	4g\	-ba	4b/	-ba
.	.	4g\	Di	4b\	Di	4dd\	Di
*xywh-pl-gd--ee1638-8o--0186:4583,1811,3424,614	*	*	*	*	*	*	*
!LO:LB:g=original	!	!	!	!	!	!	!
2r	.	4.c/	que-	4.cc\	que-	4.ee\	que-
.	.	8d\	-ſste	8b\	-ſste	8dd\	-ſste
=27-	=27-	=27-	=27-	=27-	=27-	=27-	=27-
2r	.	4f\	im-	4a\	im-	4cc\	im-
.	.	4g\	-pre-	4g\	-pre-	4b/	-pre-
4r	.	4d\	-ſsion	4f#X\	-ſsion	4a/	-ſsion
4.d\	l'a-	4.f#X\	l'a-	4.a\	l'a-	4.dd\	l'a-
=28-	=28-	=28-	=28-	=28-	=28-	=28-	=28-
.	.	.	.	.	.	.	.
8d\	-ere	8f#\	-ere	8a\	-ere	8dd\	-ere
4e\	diſ-	2g\	diſ-	4g\	diſ-	4cc#X\	diſ-
2d\	-gom-	.	.	2a\	-gõ-	2dd\	-gõ-
.	.	4f#X\	-gõ-	.	.	.	.
=29-	=29-	=29-	=29-	=29-	=29-	=29-	=29-
!	!	!LO:SIC:v:t=custos G	!	!	!	!	!
1G	-bra	1g	bra	1b	-bra	1dd	-bra
*	*	*xywh-pl-gd--ee1638-8o--0338:4573,3389,3500,651	*	*	*	*	*
!	!	!LO:LB:g=original	!	!	!	!	!
=30-	=30-	=30-	=30-	=30-	=30-	=30-	=30-
1r	.	1r	.	2r	.	1gny	Si-
.	.	.	.	2g\	Si-	.	.
=31-	=31-	=31-	=31-	=31-	=31-	=31-	=31-
1r	.	1r	.	2e/	-ve-	2g/	-ve-
.	.	.	.	2fny\	-drem	2a/	-drem
=32-	=32-	=32-	=32-	=32-	=32-	=32-	=32-
2r	.	1G	Si-	1g	poi	1b	poi
2G/	Si	.	.	.	.	.	.
=33-	=33-	=33-	=33-	=33-	=33-	=33-	=33-
2E/	ve-	2G/	-ve-	1r	.	1r	.
2F/	-drem	2A/	-drem	.	.	.	.
=34-	=34-	=34-	=34-	=34-	=34-	=34-	=34-
*	*	*	*	*	*ij	*	*
1G	poi	1B	poi	1g	Si	2r	.
!	!	!	!	!	!	!LO:SIC:v:t=custos b	!
.	.	.	.	.	.	2dd\	Si
!	!	!	!	!	!	!LO:LB:g=original	!
=35-	=35-	=35-	=35-	=35-	=35-	=35-	=35-
*	*	*	*	*	*	*xywh-pl-gd--ee1638-8o--0642:4625,3424,3424,586	*
1r	.	1r	.	2g\	ve-	2b/	ve-
.	.	.	.	2a\	-drem	2ccny\	-drem
=36-	=36-	=36-	=36-	=36-	=36-	=36-	=36-
!	!	!	!	!LO:SIC:v:t=custos g	!	!	!
4r	.	4r	.	2b\	poi	2dd\	poi
4G/	per	4g\	per	.	.	.	.
!	!	!	!	!LO:LB:g=original	!	!	!
8A/	ma-	8c/	ma-	2r	.	2r	.
8G/	-ra-	8B/	-ra-	.	.	.	.
8A/	-uig-	8c/	-uig-	.	.	.	.
8B\	-lia	8d\	-lia	.	.	.	.
*	*	*	*	*xywh-pl-gd--ee1638-8o--0490:4556,3353,3416,681	*Xij	*	*
=37-	=37-	=37-	=37-	=37-	=37-	=37-	=37-
4c\	in-	4e\	in-	4r	.	4r	.
!LO:SIC:v:t=custos c	!	!	!	!	!	!	!
4c\	-ſieme	4e\	-ſieme	4g\	per	4gg\	per
*xywh-pl-gd--ee1638-8o--0186:4625,2363,3361,593	*	*	*	*	*	*	*
!LO:LB:g=original	!	!	!	!	!	!	!
2r	.	2r	.	8a\	ma-	8cc\	ma-
.	.	.	.	8g\	-ra-	8b\	-ra-
.	.	.	.	8a\	-uig-	8cc\	-uig-
.	.	.	.	8b\	-lia	8dd\	-lia
=38-	=38-	=38-	=38-	=38-	=38-	=38-	=38-
4r	.	4r	.	4cc\	in-	4ee\	in-
*	*	*	*ij	*	*	*	*
4c\	per	4g\	per	4cc\	-ſieme	4ee\	-ſieme
8A/	ma-	8c\	ma-	2r	.	2r	.
8G/	-ra-	8B/	-ra-	.	.	.	.
8A/	-uig-	8c\	-uig-	.	.	.	.
8B\	-lia	8d\	-lia	.	.	.	.
=39-	=39-	=39-	=39-	=39-	=39-	=39-	=39-
4c\	in-	4e\	in-	2r	.	2r	.
4c\	-ſieme	4e\	-ſieme	.	.	.	.
*	*	*	*Xij	*	*	*	*
2F/	Se-	2fny\	Se-	2a\	Se-	2cc\	Se-
=40-	=40-	=40-	=40-	=40-	=40-	=40-	=40-
!	!	!LO:SIC:v:t=custos e	!	!	!	!	!
1F	-der	1f	-der	1a	-der	1cc	-der
*	*	*xywh-pl-gd--ee1638-8o--0338:4634,3938,3348,661	*	*	*	*	*
!	!	!LO:LB:g=original	!	!	!	!	!
=41-	=41-	=41-	=41-	=41-	=41-	=41-	=41-
2A/	la	2e\	la	2a\	la	2cc\	la
1E/	don-	1e\	don-	1g\	don-	1b\	don-
=42-	=42-	=42-	=42-	=42-	=42-	=42-	=42-
.	.	.	.	.	.	.	.
2G/	-na	2d\	-na	2g\	-na	2b/	-na
=43-	=43-	=43-	=43-	=43-	=43-	=43-	=43-
1D	noſ-	1d	noſ-	1f#X	noſ-	1a	noſ-
=44-	=44-	=44-	=44-	=44-	=44-	=44-	=44-
4D/	-tra	4d\	-tra	4fny\	-tra	4a/	-tra
2G/	ſo-	4d\	ſo-	2g\	ſo-	2b-X/	ſo-
.	.	4e\	pra	.	.	.	.
4A/	pra	4.f\	l'her-	4c/	-pra	4a/	-pra
=45-	=45-	=45-	=45-	=45-	=45-	=45-	=45-
1B-X	l'her-	.	.	1d	l'her-	2f/	l'her-
.	.	8e\	.	.	.	.	.
.	.	8d\	.	.	.	.	.
.	.	8c\	.	.	.	.	.
!	!	!	!	!	!	!LO:SIC:v:t=custos a	!
.	.	2d\	.	.	.	2g/	.
!	!	!	!	!	!	!LO:LB:g=original	!
=46-	=46-	=46-	=46-	=46-	=46-	=46-	=46-
*	*	*	*	*	*	*xywh-pl-gd--ee1638-8o--0642:4635,3897,3382,1244	*
2A/	-ba	2e\	-ba	2c/	ba	2a/	-ba
2A/	E	2a\	E	4r	.	4r	.
.	.	.	.	2e/	E	2cc\	E
=47-	=47-	=47-	=47-	=47-	=47-	=47-	=47-
2c\	far	2.g\	far	.	.	.	.
.	.	.	.	2cc\	far	2ee\	far
2G/	de	.	.	.	.	.	.
!	!	!	!	!LO:SIC:v:t=custos a	!	!	!
.	.	4g\	de	4b\	de	2dd\	de
*	*	*	*	*xywh-pl-gd--ee1638-8o--0490:4681,3891,3094,708	*	*	*
!	!	!	!	!LO:LB:g=original	!	!	!
=48-	=48-	=48-	=48-	=48-	=48-	=48-	=48-
2A/	le	2.e\	le	2a\	le	.	.
.	.	.	.	.	.	2cc\	le
!LO:SIC:v:t=custos F	!	!	!	!	!	!	!
2E/	ſue	.	.	2g\	ſue	.	.
.	.	4e\	ſue	.	.	2bny/	ſue
*xywh-pl-gd--ee1638-8o--0186:4625,2883,3361,603	*	*	*	*	*	*	*
!LO:LB:g=original	!	!	!	!	!	!	!
=49-	=49-	=49-	=49-	=49-	=49-	=49-	=49-
2F/	brac-	2.c/	brac-	2f\	brac-	.	.
.	.	.	.	.	.	2a/	brac-
2C/	-cia	.	.	2e/	-cia	.	.
.	.	4e\	cia	.	.	2g/	-cia
=50-	=50-	=50-	=50-	=50-	=50-	=50-	=50-
2D/	a ſe	4d\	a ſe	2a\	a ſe	.	.
.	.	4A/	ſteſs'	.	.	4f/	a ſe
2E/	ſteſs'	2.c/	om-	2g\	ſteſs'	2e/	ſteſs'
=51-	=51-	=51-	=51-	=51-	=51-	=51-	=51-
2G/	om-	.	.	1g	o-	1d	õ-
.	.	8B/	-o-	.	.	.	.
.	.	8A/	.	.	.	.	.
!	!	!LO:SIC:v:t=custos c	!	!	!	!	!
2G/	-bra	2B/	.	.	.	.	.
*	*	*xywh-pl-gd--ee1638-8o--0338:4593,4478,3358,681	*	*	*	*	*
!	!	!LO:LB:g=original	!	!	!	!	!
=52-	=52-	=52-	=52-	=52-	=52-	=52-	=52-
2r	.	1c	bra	2e/	bra	2c/	-bra
2A/	E	.	.	4r	.	4r	.
.	.	.	.	2e/	E	2cc\	E
=53-	=53-	=53-	=53-	=53-	=53-	=53-	=53-
2c\	far	4r	.	.	.	.	.
.	.	4g\	E	2cc\	far	2ee\	far
2G/	de	4.g\	far	.	.	.	.
.	.	.	.	4b\	de	2dd\	de
.	.	8g\	de	.	.	.	.
=54-	=54-	=54-	=54-	=54-	=54-	=54-	=54-
2A/	le	2.e\	le	2a\	le	.	.
.	.	.	.	.	.	2cc\	le
2E/	ſue	.	.	2g\	ſue	.	.
.	.	4e\	ſue	.	.	2b/	ſue
=55-	=55-	=55-	=55-	=55-	=55-	=55-	=55-
2F/	brac-	2.c/	brac-	2f\	brac-	.	.
.	.	.	.	.	.	2a/	brac-
2C/	-cia	.	.	2e/	-cia	.	.
.	.	4e\	-cia	.	.	2g/	-cia
=56-	=56-	=56-	=56-	=56-	=56-	=56-	=56-
2D/	a ſe	4d\	a ſe	2a\	a ſe	.	.
.	.	4A/	ſteſs'	.	.	4f/	a ſe
2E/	ſteſs'	2.c/	om-	2g\	ſteſs'	2e/	ſteſs
=57-	=57-	=57-	=57-	=57-	=57-	=57-	=57-
1G	om-	.	.	1g	o-	1d	õ-
.	.	8B/	.	.	.	.	.
.	.	8A/	.	.	.	.	.
.	.	2B/	.	.	.	.	.
=58-	=58-	=58-	=58-	=58-	=58-	=58-	=58-
00C	-bra.	00c/	-bra.	00g	-bra.	00e	-bra
=59-	=59-	=59-	=59-	=59-	=59-	=59-	=59-
.	.	.	.	.	.	.	.
=60-	=60-	=60-	=60-	=60-	=60-	=60-	=60-
.	.	.	.	.	.	.	.
=61-	=61-	=61-	=61-	=61-	=61-	=61-	=61-
.	.	.	.	.	.	.	.
==	==	==	==	==	==	==	==
*-	*-	*-	*-	*-	*-	*-	*-
!!!system-decoration: [(s1,s2,s3,s4)]
!!!ENC: Marta Opryszak
!!!END: 2022-06-26
!!!ENC: Natalia Wrzos
!!!END: 2022-07-11
!!!YEC: Copyright 2022 Narodowy Instytut Fryderyka Chopina (https://polishscores.org)
!!!YEM: License CC-BY-4.0 (https://creativecommons.org/licenses/by/4.0)
!!!IIIF: https://repozytorium.nifc.pl/islandora/object/pl-gd%3A57883/datastream/IIIF/view
!!!ENC-IIIF: Zuzanna Daniec
!!!END-IIIF: 2022-09-05
